Newaita-dark/apps/24/vokoscreen.svg

<svg height="24pt" viewBox="0 0 24 24" width="24pt" xmlns="http://www.w3.org/2000/svg" xmlns:xlink="http://www.w3.org/1999/xlink"><linearGradient id="a" gradientUnits="userSpaceOnUse" x1="11.907391" x2="11.907391" y1="21.02545025" y2="22.01773315627"><stop offset="0" stop-opacity=".27451"/><stop offset="1" stop-opacity="0"/></linearGradient><linearGradient id="b"><stop offset="0" stop-opacity=".313725"/><stop offset=".222222" stop-opacity=".27451"/><stop offset="1" stop-opacity="0"/></linearGradient><radialGradient id="c" cx="450.90894" cy="189.57936" gradientTransform="matrix(.00000013 -.0585994 -.105479 -.00000008 40.090268 47.6965)" gradientUnits="userSpaceOnUse" r="21.166656" xlink:href="#b"/><radialGradient id="d" cx="450.90894" cy="189.57936" gradientTransform="matrix(-.00000013 .0585994 .105479 .00000008 -16.275494 -5.64561)" gradientUnits="userSpaceOnUse" r="21.166656" xlink:href="#b"/><radialGradient id="e" cx="450.90894" cy="189.57936" gradientTransform="matrix(-.00000013 -.0585994 .105479 -.00000008 -16.275494 47.6965)" gradientUnits="userSpaceOnUse" r="21.166656" xlink:href="#b"/><radialGradient id="f" cx="450.90894" cy="189.57936" gradientTransform="matrix(.00000013 .0585994 -.105479 .00000008 40.090267 -5.64561)" gradientUnits="userSpaceOnUse" r="21.166656" xlink:href="#b"/><linearGradient id="g"><stop offset="0" stop-color="#424242"/><stop offset="1" stop-color="#616161"/></linearGradient><linearGradient id="h" gradientTransform="matrix(.0565122 0 0 .163059 -4.39051 25.231011)" gradientUnits="userSpaceOnUse" x1="306.91666" x2="305.95456" xlink:href="#g" y1="-25.791676" y2="-135.32916"/><linearGradient id="i"><stop offset="0" stop-color="#f44336"/><stop offset="1" stop-color="#ef5350"/></linearGradient><linearGradient id="j" gradientUnits="userSpaceOnUse" x1="13.89192" x2="13.89192" xlink:href="#i" y1="21.0356575937" y2="3.17461660142"/><linearGradient id="k" gradientTransform="matrix(.5 0 0 .571428 -105.83347 106.33793)" gradientUnits="userSpaceOnUse" x1="444.5" x2="444.5" xlink:href="#g" y1="185.875" y2="148.83333"/><linearGradient id="l" gradientTransform="matrix(.5 0 0 .571428 -63.500116 106.33793)" gradientUnits="userSpaceOnUse" x1="444.5" x2="444.5" xlink:href="#g" y1="185.875" y2="148.83333"/><linearGradient id="m" gradientTransform="matrix(.5 0 0 .571428 -21.166803 106.33793)" gradientUnits="userSpaceOnUse" x1="444.5" x2="444.5" xlink:href="#g" y1="185.875" y2="148.83333"/><linearGradient id="n" gradientTransform="matrix(.5 0 0 .571428 169.3332 106.33793)" gradientUnits="userSpaceOnUse" x1="444.5" x2="444.5" xlink:href="#g" y1="185.875" y2="148.83333"/><linearGradient id="o" gradientUnits="userSpaceOnUse" x1="11.907393" x2="11.907393" xlink:href="#i" y1="21.02545025" y2="3.16436075"/><path d="m3.472656 21.027344h16.867188v.992187h-16.867188zm0 0" fill="url(#a)"/><path d="m20.339844 21.027344h1.988281v-.996094h-1.988281zm0 0" fill="url(#c)"/><path d="m3.472656 21.027344h-1.984375v.992187h1.984375zm0 0" fill="url(#d)"/><path d="m3.472656 21.027344h-1.984375v-.996094h1.984375zm0 0" fill="url(#e)"/><path d="m20.339844 21.027344h1.988281v.992187h-1.988281zm0 0" fill="url(#f)"/><path d="m2.480469 3.164062h18.855469c.546874 0 .992187.445313.992187.992188v15.875c0 .550781-.445313.996094-.992187.996094h-18.855469c-.546875 0-.992188-.445313-.992188-.996094v-15.875c0-.546875.445313-.992188.992188-.992188zm0 0" fill="url(#h)"/><path d="m2.480469 21.035156c-.550781 0-.992188-.441406-.992188-.992187v-.257813c0 .550782.441407.992188.992188.992188h18.855469c.546874 0 .992187-.441406.992187-.992188v.257813c0 .550781-.445313.992187-.992187.992187zm0 0" fill-opacity=".235294"/><path d="m4.960938 18.058594c-.550782 0-.992188.441406-.992188.992187v1.488281c0 .273438.222656.496094.496094.496094h14.882812c.277344 0 .496094-.222656.496094-.496094v-1.488281c0-.550781-.441406-.992187-.992188-.992187zm0 0" fill="url(#j)"/><g stroke="#212121" stroke-linecap="round" stroke-width="3" transform="matrix(.0468795 0 0 .0468795 0 10.079087)"><path d="m116.40555 191.37786c5.832777 0 10.582323 4.749546 10.582323 10.582322 0 5.832777-4.749546 10.582323-10.582323 10.582323-5.832776 0-10.582322-4.749546-10.582322-10.582323 0-5.832776 4.749546-10.582322 10.582322-10.582322zm0 0" fill="url(#k)"/><path d="m158.734842 191.37786c5.832776 0 10.582322 4.749546 10.582322 10.582322 0 5.832777-4.749546 10.582323-10.582322 10.582323-5.832777 0-10.582323-4.749546-10.582323-10.582323 0-5.832776 4.749546-10.582322 10.582323-10.582322zm0 0" fill="url(#l)"/><path d="m201.064133 191.37786c5.832776 0 10.582322 4.749546 10.582322 10.582322 0 5.832777-4.749546 10.582323-10.582322 10.582323-5.832777 0-10.582323-4.749546-10.582323-10.582323 0-5.832776 4.749546-10.582322 10.582323-10.582322zm0 0" fill="url(#m)"/><path d="m391.545943 191.37786c5.916101 0 10.582322 4.749546 10.582322 10.582322 0 5.832777-4.666221 10.582323-10.582322 10.582323-5.832777 0-10.582323-4.749546-10.582323-10.582323 0-5.832776 4.749546-10.582322 10.582323-10.582322zm0 0" fill="url(#n)"/></g><path d="m4.960938 18.058594c-.550782 0-.992188.441406-.992188.992187v.238281c0-.550781.441406-.992187.992188-.992187h13.890624c.550782 0 .992188.441406.992188.992187v-.238281c0-.550781-.441406-.992187-.992188-.992187zm0 0" fill="#fff" fill-opacity=".392157"/><path d="m3.96875 20.292969v.246093c0 .273438.222656.496094.496094.496094h14.882812c.277344 0 .496094-.222656.496094-.496094v-.246093c0 .273437-.21875.496093-.496094.496093h-14.882812c-.273438 0-.496094-.222656-.496094-.496093zm0 0" fill-opacity=".235294"/><path d="m4.960938 17.988281c-.585938 0-1.0625.476563-1.0625 1.0625v1.488281c0 .3125.253906.566407.566406.566407h14.882812c.3125 0 .566406-.253907.566406-.566407v-1.488281c0-.585937-.472656-1.0625-1.0625-1.0625zm0 .140625h13.890624c.515626 0 .921876.410156.921876.921875v1.488281c0 .238282-.1875.425782-.425782.425782h-14.882812c-.238282 0-.425782-.1875-.425782-.425782v-1.488281c0-.511719.410157-.921875.921876-.921875zm0 0" fill="#212121"/><path d="m2.480469 3.222656c-.550781 0-.992188.441406-.992188.992188v.132812c0-.550781.441407-.992187.992188-.992187h18.855469c.546874 0 .992187.441406.992187.992187v-.132812c0-.550782-.445313-.992188-.992187-.992188zm0 0" fill="#fff" fill-opacity=".392157"/><path d="m2.480469 3.09375c-.585938 0-1.0625.476562-1.0625 1.0625v15.875c0 .589844.476562 1.066406 1.0625 1.066406h18.855469c.585937 0 1.0625-.476562 1.0625-1.066406v-15.875c0-.585938-.476563-1.0625-1.0625-1.0625zm0 .140625h18.855469c.511718 0 .921874.410156.921874.921875v15.875c0 .515625-.410156.925781-.921874.925781h-18.855469c-.511719 0-.921875-.410156-.921875-.925781v-15.875c0-.511719.410156-.921875.921875-.921875zm0 0" fill="#212121"/><path d="m11.90625 7.132812c1.917969 0 3.472656 1.554688 3.472656 3.472657s-1.554687 3.472656-3.472656 3.472656-3.472656-1.554687-3.472656-3.472656 1.554687-3.472657 3.472656-3.472657zm0 0" fill="url(#o)"/><path d="m11.90625 7.132812c-1.921875 0-3.472656 1.550782-3.472656 3.472657 0 .03125 0 .0625.003906.09375.046875-1.878907 1.578125-3.378907 3.46875-3.378907 1.894531 0 3.425781 1.5 3.472656 3.378907 0-.03125 0-.0625 0-.09375 0-1.921875-1.546875-3.472657-3.472656-3.472657zm0 0" fill="#fff" fill-opacity=".392157"/><path d="m8.4375 10.804688c-.003906.039062-.003906.082031-.003906.121093 0 1.925781 1.550781 3.476563 3.472656 3.476563 1.925781 0 3.472656-1.550782 3.472656-3.476563 0-.039062 0-.082031 0-.121093-.066406 1.863281-1.589844 3.347656-3.472656 3.347656s-3.40625-1.484375-3.46875-3.347656zm0 0" fill-opacity=".235294"/><path d="m253.975747-62.847863c40.912759 0 74.076259 33.1635 74.076259 74.076259 0 40.91276-33.1635 74.07626-74.076259 74.07626-40.91276 0-74.07626-33.1635-74.07626-74.07626 0-40.912759 33.1635-74.076259 74.07626-74.076259zm0 0" fill="none" stroke="#212121" stroke-linecap="round" stroke-linejoin="round" stroke-width="3" transform="matrix(.0468795 0 0 .0468795 0 10.079087)"/></svg>

<?xml version="1.0" encoding="UTF-8"?>
<svg xmlns="http://www.w3.org/2000/svg" xmlns:xlink="http://www.w3.org/1999/xlink" width="24pt" height="24pt" viewBox="0 0 24 24" version="1.1">
<defs>
<linearGradient id="linear0" gradientUnits="userSpaceOnUse" x1="254" y1="233.5" x2="254" y2="254.66667" gradientTransform="matrix(0.0468795,0,0,0.0468795,-0.00000187518,10.079087)">
<stop offset="0" style="stop-color:rgb(0%,0%,0%);stop-opacity:0.27451;"/>
<stop offset="1" style="stop-color:rgb(0%,0%,0%);stop-opacity:0;"/>
</linearGradient>
<radialGradient id="radial0" gradientUnits="userSpaceOnUse" cx="450.90894" cy="189.57936" fx="450.90894" fy="189.57936" r="21.166656" gradientTransform="matrix(0.000000130628,-0.0585994,-0.105479,-0.0000000761539,40.090268,47.6965)">
<stop offset="0" style="stop-color:rgb(0%,0%,0%);stop-opacity:0.313725;"/>
<stop offset="0.222222" style="stop-color:rgb(0%,0%,0%);stop-opacity:0.27451;"/>
<stop offset="1" style="stop-color:rgb(0%,0%,0%);stop-opacity:0;"/>
</radialGradient>
<radialGradient id="radial1" gradientUnits="userSpaceOnUse" cx="450.90894" cy="189.57936" fx="450.90894" fy="189.57936" r="21.166656" gradientTransform="matrix(-0.000000130628,0.0585994,0.105479,0.0000000761539,-16.275494,-5.64561)">
<stop offset="0" style="stop-color:rgb(0%,0%,0%);stop-opacity:0.313725;"/>
<stop offset="0.222222" style="stop-color:rgb(0%,0%,0%);stop-opacity:0.27451;"/>
<stop offset="1" style="stop-color:rgb(0%,0%,0%);stop-opacity:0;"/>
</radialGradient>
<radialGradient id="radial2" gradientUnits="userSpaceOnUse" cx="450.90894" cy="189.57936" fx="450.90894" fy="189.57936" r="21.166656" gradientTransform="matrix(-0.000000130628,-0.0585994,0.105479,-0.0000000761539,-16.275494,47.6965)">
<stop offset="0" style="stop-color:rgb(0%,0%,0%);stop-opacity:0.313725;"/>
<stop offset="0.222222" style="stop-color:rgb(0%,0%,0%);stop-opacity:0.27451;"/>
<stop offset="1" style="stop-color:rgb(0%,0%,0%);stop-opacity:0;"/>
</radialGradient>
<radialGradient id="radial3" gradientUnits="userSpaceOnUse" cx="450.90894" cy="189.57936" fx="450.90894" fy="189.57936" r="21.166656" gradientTransform="matrix(0.000000130628,0.0585994,-0.105479,0.0000000761539,40.090267,-5.64561)">
<stop offset="0" style="stop-color:rgb(0%,0%,0%);stop-opacity:0.313725;"/>
<stop offset="0.222222" style="stop-color:rgb(0%,0%,0%);stop-opacity:0.27451;"/>
<stop offset="1" style="stop-color:rgb(0%,0%,0%);stop-opacity:0;"/>
</radialGradient>
<linearGradient id="linear1" gradientUnits="userSpaceOnUse" x1="306.91666" y1="-25.791676" x2="305.95456" y2="-135.32916" gradientTransform="matrix(0.0565122,0,0,0.163059,-4.39051,25.231011)">
<stop offset="0" style="stop-color:rgb(25.882353%,25.882353%,25.882353%);stop-opacity:1;"/>
<stop offset="1" style="stop-color:rgb(38.039216%,38.039216%,38.039216%);stop-opacity:1;"/>
</linearGradient>
<linearGradient id="linear2" gradientUnits="userSpaceOnUse" x1="1120" y1="1695.1182" x2="1120" y2="255.11812" gradientTransform="matrix(0.0124035,0,0,0.0124035,0,0.0102591)">
<stop offset="0" style="stop-color:rgb(95.686275%,26.27451%,21.176471%);stop-opacity:1;"/>
<stop offset="1" style="stop-color:rgb(93.72549%,32.54902%,31.372549%);stop-opacity:1;"/>
</linearGradient>
<linearGradient id="linear3" gradientUnits="userSpaceOnUse" x1="444.5" y1="185.875" x2="444.5" y2="148.83333" gradientTransform="matrix(0.5,0,0,0.571428,-105.83347,106.33793)">
<stop offset="0" style="stop-color:rgb(25.882353%,25.882353%,25.882353%);stop-opacity:1;"/>
<stop offset="1" style="stop-color:rgb(38.039216%,38.039216%,38.039216%);stop-opacity:1;"/>
</linearGradient>
<linearGradient id="linear4" gradientUnits="userSpaceOnUse" x1="444.5" y1="185.875" x2="444.5" y2="148.83333" gradientTransform="matrix(0.5,0,0,0.571428,-63.500116,106.33793)">
<stop offset="0" style="stop-color:rgb(25.882353%,25.882353%,25.882353%);stop-opacity:1;"/>
<stop offset="1" style="stop-color:rgb(38.039216%,38.039216%,38.039216%);stop-opacity:1;"/>
</linearGradient>
<linearGradient id="linear5" gradientUnits="userSpaceOnUse" x1="444.5" y1="185.875" x2="444.5" y2="148.83333" gradientTransform="matrix(0.5,0,0,0.571428,-21.166803,106.33793)">
<stop offset="0" style="stop-color:rgb(25.882353%,25.882353%,25.882353%);stop-opacity:1;"/>
<stop offset="1" style="stop-color:rgb(38.039216%,38.039216%,38.039216%);stop-opacity:1;"/>
</linearGradient>
<linearGradient id="linear6" gradientUnits="userSpaceOnUse" x1="444.5" y1="185.875" x2="444.5" y2="148.83333" gradientTransform="matrix(0.5,0,0,0.571428,169.3332,106.33793)">
<stop offset="0" style="stop-color:rgb(25.882353%,25.882353%,25.882353%);stop-opacity:1;"/>
<stop offset="1" style="stop-color:rgb(38.039216%,38.039216%,38.039216%);stop-opacity:1;"/>
</linearGradient>
<linearGradient id="linear7" gradientUnits="userSpaceOnUse" x1="254" y1="233.5" x2="254" y2="-147.5" gradientTransform="matrix(0.0468795,0,0,0.0468795,0,10.079087)">
<stop offset="0" style="stop-color:rgb(95.686275%,26.27451%,21.176471%);stop-opacity:1;"/>
<stop offset="1" style="stop-color:rgb(93.72549%,32.54902%,31.372549%);stop-opacity:1;"/>
</linearGradient>
</defs>
<g id="surface1">
<path style=" stroke:none;fill-rule:nonzero;fill:url(#linear0);" d="M 3.472656 21.027344 L 20.339844 21.027344 L 20.339844 22.019531 L 3.472656 22.019531 Z M 3.472656 21.027344 "/>
<path style=" stroke:none;fill-rule:nonzero;fill:url(#radial0);" d="M 20.339844 21.027344 L 22.328125 21.027344 L 22.328125 20.03125 L 20.339844 20.03125 Z M 20.339844 21.027344 "/>
<path style=" stroke:none;fill-rule:nonzero;fill:url(#radial1);" d="M 3.472656 21.027344 L 1.488281 21.027344 L 1.488281 22.019531 L 3.472656 22.019531 Z M 3.472656 21.027344 "/>
<path style=" stroke:none;fill-rule:nonzero;fill:url(#radial2);" d="M 3.472656 21.027344 L 1.488281 21.027344 L 1.488281 20.03125 L 3.472656 20.03125 Z M 3.472656 21.027344 "/>
<path style=" stroke:none;fill-rule:nonzero;fill:url(#radial3);" d="M 20.339844 21.027344 L 22.328125 21.027344 L 22.328125 22.019531 L 20.339844 22.019531 Z M 20.339844 21.027344 "/>
<path style=" stroke:none;fill-rule:nonzero;fill:url(#linear1);" d="M 2.480469 3.164062 L 21.335938 3.164062 C 21.882812 3.164062 22.328125 3.609375 22.328125 4.15625 L 22.328125 20.03125 C 22.328125 20.582031 21.882812 21.027344 21.335938 21.027344 L 2.480469 21.027344 C 1.933594 21.027344 1.488281 20.582031 1.488281 20.03125 L 1.488281 4.15625 C 1.488281 3.609375 1.933594 3.164062 2.480469 3.164062 Z M 2.480469 3.164062 "/>
<path style=" stroke:none;fill-rule:nonzero;fill:rgb(0%,0%,0%);fill-opacity:0.235294;" d="M 2.480469 21.035156 C 1.929688 21.035156 1.488281 20.59375 1.488281 20.042969 L 1.488281 19.785156 C 1.488281 20.335938 1.929688 20.777344 2.480469 20.777344 L 21.335938 20.777344 C 21.882812 20.777344 22.328125 20.335938 22.328125 19.785156 L 22.328125 20.042969 C 22.328125 20.59375 21.882812 21.035156 21.335938 21.035156 Z M 2.480469 21.035156 "/>
<path style=" stroke:none;fill-rule:nonzero;fill:url(#linear2);" d="M 4.960938 18.058594 C 4.410156 18.058594 3.96875 18.5 3.96875 19.050781 L 3.96875 20.539062 C 3.96875 20.8125 4.191406 21.035156 4.464844 21.035156 L 19.347656 21.035156 C 19.625 21.035156 19.84375 20.8125 19.84375 20.539062 L 19.84375 19.050781 C 19.84375 18.5 19.402344 18.058594 18.851562 18.058594 Z M 4.960938 18.058594 "/>
<path style="fill-rule:nonzero;fill:url(#linear3);stroke-width:3;stroke-linecap:round;stroke-linejoin:miter;stroke:rgb(12.941176%,12.941176%,12.941176%);stroke-opacity:1;stroke-miterlimit:4;" d="M 116.40555 191.37786 C 122.238327 191.37786 126.987873 196.127406 126.987873 201.960182 C 126.987873 207.792959 122.238327 212.542505 116.40555 212.542505 C 110.572774 212.542505 105.823228 207.792959 105.823228 201.960182 C 105.823228 196.127406 110.572774 191.37786 116.40555 191.37786 Z M 116.40555 191.37786 " transform="matrix(0.0468795,0,0,0.0468795,0,10.079087)"/>
<path style="fill-rule:nonzero;fill:url(#linear4);stroke-width:3;stroke-linecap:round;stroke-linejoin:miter;stroke:rgb(12.941176%,12.941176%,12.941176%);stroke-opacity:1;stroke-miterlimit:4;" d="M 158.734842 191.37786 C 164.567618 191.37786 169.317164 196.127406 169.317164 201.960182 C 169.317164 207.792959 164.567618 212.542505 158.734842 212.542505 C 152.902065 212.542505 148.152519 207.792959 148.152519 201.960182 C 148.152519 196.127406 152.902065 191.37786 158.734842 191.37786 Z M 158.734842 191.37786 " transform="matrix(0.0468795,0,0,0.0468795,0,10.079087)"/>
<path style="fill-rule:nonzero;fill:url(#linear5);stroke-width:3;stroke-linecap:round;stroke-linejoin:miter;stroke:rgb(12.941176%,12.941176%,12.941176%);stroke-opacity:1;stroke-miterlimit:4;" d="M 201.064133 191.37786 C 206.896909 191.37786 211.646455 196.127406 211.646455 201.960182 C 211.646455 207.792959 206.896909 212.542505 201.064133 212.542505 C 195.231356 212.542505 190.48181 207.792959 190.48181 201.960182 C 190.48181 196.127406 195.231356 191.37786 201.064133 191.37786 Z M 201.064133 191.37786 " transform="matrix(0.0468795,0,0,0.0468795,0,10.079087)"/>
<path style="fill-rule:nonzero;fill:url(#linear6);stroke-width:3;stroke-linecap:round;stroke-linejoin:miter;stroke:rgb(12.941176%,12.941176%,12.941176%);stroke-opacity:1;stroke-miterlimit:4;" d="M 391.545943 191.37786 C 397.462044 191.37786 402.128265 196.127406 402.128265 201.960182 C 402.128265 207.792959 397.462044 212.542505 391.545943 212.542505 C 385.713166 212.542505 380.96362 207.792959 380.96362 201.960182 C 380.96362 196.127406 385.713166 191.37786 391.545943 191.37786 Z M 391.545943 191.37786 " transform="matrix(0.0468795,0,0,0.0468795,0,10.079087)"/>
<path style=" stroke:none;fill-rule:nonzero;fill:rgb(100%,100%,100%);fill-opacity:0.392157;" d="M 4.960938 18.058594 C 4.410156 18.058594 3.96875 18.5 3.96875 19.050781 L 3.96875 19.289062 C 3.96875 18.738281 4.410156 18.296875 4.960938 18.296875 L 18.851562 18.296875 C 19.402344 18.296875 19.84375 18.738281 19.84375 19.289062 L 19.84375 19.050781 C 19.84375 18.5 19.402344 18.058594 18.851562 18.058594 Z M 4.960938 18.058594 "/>
<path style=" stroke:none;fill-rule:nonzero;fill:rgb(0%,0%,0%);fill-opacity:0.235294;" d="M 3.96875 20.292969 L 3.96875 20.539062 C 3.96875 20.8125 4.191406 21.035156 4.464844 21.035156 L 19.347656 21.035156 C 19.625 21.035156 19.84375 20.8125 19.84375 20.539062 L 19.84375 20.292969 C 19.84375 20.566406 19.625 20.789062 19.347656 20.789062 L 4.464844 20.789062 C 4.191406 20.789062 3.96875 20.566406 3.96875 20.292969 Z M 3.96875 20.292969 "/>
<path style=" stroke:none;fill-rule:nonzero;fill:rgb(12.941176%,12.941176%,12.941176%);fill-opacity:1;" d="M 4.960938 17.988281 C 4.375 17.988281 3.898438 18.464844 3.898438 19.050781 L 3.898438 20.539062 C 3.898438 20.851562 4.152344 21.105469 4.464844 21.105469 L 19.347656 21.105469 C 19.660156 21.105469 19.914062 20.851562 19.914062 20.539062 L 19.914062 19.050781 C 19.914062 18.464844 19.441406 17.988281 18.851562 17.988281 Z M 4.960938 18.128906 L 18.851562 18.128906 C 19.367188 18.128906 19.773438 18.539062 19.773438 19.050781 L 19.773438 20.539062 C 19.773438 20.777344 19.585938 20.964844 19.347656 20.964844 L 4.464844 20.964844 C 4.226562 20.964844 4.039062 20.777344 4.039062 20.539062 L 4.039062 19.050781 C 4.039062 18.539062 4.449219 18.128906 4.960938 18.128906 Z M 4.960938 18.128906 "/>
<path style=" stroke:none;fill-rule:nonzero;fill:rgb(100%,100%,100%);fill-opacity:0.392157;" d="M 2.480469 3.222656 C 1.929688 3.222656 1.488281 3.664062 1.488281 4.214844 L 1.488281 4.347656 C 1.488281 3.796875 1.929688 3.355469 2.480469 3.355469 L 21.335938 3.355469 C 21.882812 3.355469 22.328125 3.796875 22.328125 4.347656 L 22.328125 4.214844 C 22.328125 3.664062 21.882812 3.222656 21.335938 3.222656 Z M 2.480469 3.222656 "/>
<path style=" stroke:none;fill-rule:nonzero;fill:rgb(12.941176%,12.941176%,12.941176%);fill-opacity:1;" d="M 2.480469 3.09375 C 1.894531 3.09375 1.417969 3.570312 1.417969 4.15625 L 1.417969 20.03125 C 1.417969 20.621094 1.894531 21.097656 2.480469 21.097656 L 21.335938 21.097656 C 21.921875 21.097656 22.398438 20.621094 22.398438 20.03125 L 22.398438 4.15625 C 22.398438 3.570312 21.921875 3.09375 21.335938 3.09375 Z M 2.480469 3.234375 L 21.335938 3.234375 C 21.847656 3.234375 22.257812 3.644531 22.257812 4.15625 L 22.257812 20.03125 C 22.257812 20.546875 21.847656 20.957031 21.335938 20.957031 L 2.480469 20.957031 C 1.96875 20.957031 1.558594 20.546875 1.558594 20.03125 L 1.558594 4.15625 C 1.558594 3.644531 1.96875 3.234375 2.480469 3.234375 Z M 2.480469 3.234375 "/>
<path style=" stroke:none;fill-rule:nonzero;fill:url(#linear7);" d="M 11.90625 7.132812 C 13.824219 7.132812 15.378906 8.6875 15.378906 10.605469 C 15.378906 12.523438 13.824219 14.078125 11.90625 14.078125 C 9.988281 14.078125 8.433594 12.523438 8.433594 10.605469 C 8.433594 8.6875 9.988281 7.132812 11.90625 7.132812 Z M 11.90625 7.132812 "/>
<path style=" stroke:none;fill-rule:nonzero;fill:rgb(100%,100%,100%);fill-opacity:0.392157;" d="M 11.90625 7.132812 C 9.984375 7.132812 8.433594 8.683594 8.433594 10.605469 C 8.433594 10.636719 8.433594 10.667969 8.4375 10.699219 C 8.484375 8.820312 10.015625 7.320312 11.90625 7.320312 C 13.800781 7.320312 15.332031 8.820312 15.378906 10.699219 C 15.378906 10.667969 15.378906 10.636719 15.378906 10.605469 C 15.378906 8.683594 13.832031 7.132812 11.90625 7.132812 Z M 11.90625 7.132812 "/>
<path style=" stroke:none;fill-rule:nonzero;fill:rgb(0%,0%,0%);fill-opacity:0.235294;" d="M 8.4375 10.804688 C 8.433594 10.84375 8.433594 10.886719 8.433594 10.925781 C 8.433594 12.851562 9.984375 14.402344 11.90625 14.402344 C 13.832031 14.402344 15.378906 12.851562 15.378906 10.925781 C 15.378906 10.886719 15.378906 10.84375 15.378906 10.804688 C 15.3125 12.667969 13.789062 14.152344 11.90625 14.152344 C 10.023438 14.152344 8.5 12.667969 8.4375 10.804688 Z M 8.4375 10.804688 "/>
<path style="fill:none;stroke-width:3;stroke-linecap:round;stroke-linejoin:round;stroke:rgb(12.941176%,12.941176%,12.941176%);stroke-opacity:1;stroke-miterlimit:4;" d="M 253.975747 -62.847863 C 294.888506 -62.847863 328.052006 -29.684363 328.052006 11.228396 C 328.052006 52.141156 294.888506 85.304656 253.975747 85.304656 C 213.062987 85.304656 179.899487 52.141156 179.899487 11.228396 C 179.899487 -29.684363 213.062987 -62.847863 253.975747 -62.847863 Z M 253.975747 -62.847863 " transform="matrix(0.0468795,0,0,0.0468795,0,10.079087)"/>
</g>
</svg>
